svgs/google_task_mate.svg

<svg xmlns="http://www.w3.org/2000/svg" xml:space="preserve" width="192" height="192" style="enable-background:new 0 0 192 192" viewBox="0 0 192 192"><path d="m41.4 129.6 50-.4c1.1 0 2 .9 2 2v2.4c.1 10.5-8.4 19.1-18.9 19.1l-32.1.3c-6.6.1-12-5.3-12.1-11.9v-.2c0-6.2 4.9-11.2 11.1-11.3zm-9.7-76.7-.2.1c-6.3 2.1-9.7 8.9-7.6 15.2l10.2 30.6c3.3 10 14.1 15.3 24 12l2.3-.8c1-.3 1.6-1.5 1.3-2.5L45.8 60c-1.9-5.9-8.3-9-14.1-7.1zM115.8 27l-.1-.2c-3.9-5.3-11.4-6.5-16.8-2.5l-26 19.2c-8.4 6.2-10.2 18.1-4 26.6l1.4 1.9c.7.9 1.9 1.1 2.8.4l40.3-29.7c5-3.7 6-10.7 2.4-15.7zm50.6 72 .1-.2c3.9-5.4 2.6-12.9-2.8-16.7l-26.2-18.7c-8.5-6.1-20.4-4.1-26.5 4.4l-1.4 1.9c-.6.9-.4 2.1.5 2.8l40.7 29.1c5 3.6 12 2.4 15.6-2.6zm-52.8 70.4.2.1c6.3 2 13.1-1.5 15.1-7.8l9.7-30.7c3.2-10-2.4-20.7-12.4-23.8l-2.3-.7c-1.1-.3-2.2.3-2.5 1.3l-15.1 47.7c-1.9 5.7 1.4 12 7.3 13.9z" style="fill:none;stroke:#000;stroke-width:12;stroke-miterlimit:10"/></svg>

<?xml version="1.0" encoding="utf-8"?>
<!-- Generator: Adobe Illustrator 25.4.1, SVG Export Plug-In . SVG Version: 6.00 Build 0)  -->
<svg version="1.1" id="Layer_1" xmlns="http://www.w3.org/2000/svg" xmlns:xlink="http://www.w3.org/1999/xlink" x="0px" y="0px"
	 width="192px" height="192px" viewBox="0 0 192 192" style="enable-background:new 0 0 192 192;" xml:space="preserve">
<style type="text/css">
	.st0{fill:none;stroke:#000000;stroke-width:12;stroke-miterlimit:10;}
</style>
<path class="st0" d="M41.4,129.6l50-0.4c1.1,0,2,0.9,2,2l0,2.4c0.1,10.5-8.4,19.1-18.9,19.1L42.4,153c-6.6,0.1-12-5.3-12.1-11.9
	l0-0.2C30.3,134.7,35.2,129.7,41.4,129.6z M31.7,52.9L31.5,53c-6.3,2.1-9.7,8.9-7.6,15.2l10.2,30.6c3.3,10,14.1,15.3,24,12l2.3-0.8
	c1-0.3,1.6-1.5,1.3-2.5L45.8,60C43.9,54.1,37.5,51,31.7,52.9z M115.8,27l-0.1-0.2c-3.9-5.3-11.4-6.5-16.8-2.5L72.9,43.5
	c-8.4,6.2-10.2,18.1-4,26.6l1.4,1.9c0.7,0.9,1.9,1.1,2.8,0.4l40.3-29.7C118.4,39,119.4,32,115.8,27z M166.4,99l0.1-0.2
	c3.9-5.4,2.6-12.9-2.8-16.7l-26.2-18.7c-8.5-6.1-20.4-4.1-26.5,4.4l-1.4,1.9c-0.6,0.9-0.4,2.1,0.5,2.8l40.7,29.1
	C155.8,105.2,162.8,104,166.4,99z M113.6,169.4l0.2,0.1c6.3,2,13.1-1.5,15.1-7.8l9.7-30.7c3.2-10-2.4-20.7-12.4-23.8l-2.3-0.7
	c-1.1-0.3-2.2,0.3-2.5,1.3l-15.1,47.7C104.4,161.2,107.7,167.5,113.6,169.4z"/>
</svg>
